icons/production/bower.svg

<?xml version="1.0" encoding="UTF-8" standalone="no"?>
<svg width="24px" height="24px" viewBox="0 0 24 24" version="1.1" xmlns="http://www.w3.org/2000/svg">
<!--Generator: Sketch 3.8.3 (29802) - http://www.bohemiancoding.com/sketch-->
    <title>
        bower
    </title>
    <desc>
        Created with Sketch.
    </desc>
    <g id="Page-1" stroke="none" stroke-width="1" fill="none" fill-rule="evenodd">
        <path d="M21.0959641,11.4833782 C20.7946188,11.3815961 20.4932735,11.178032 20.0914798,11.07625 C18.2834081,10.5673397 16.4753363,10.3637756 14.6672646,10.0584295 C14.3659193,10.0584295 14.064574,9.95664741 13.6627803,9.95664741 C13.7632287,9.44773716 13.9641256,9.24417305 14.6672646,9.142391 C14.767713,9.24417305 14.767713,9.44773716 14.8681614,9.54951921 C14.8681614,9.65130126 14.9686099,9.75308331 15.0690583,9.65130126 L15.7721973,9.65130126 C16.9775785,9.44773716 17.7811659,8.83704485 18.2834081,7.61566023 C18.3838565,7.20853202 18.4843049,6.80140382 18.5847534,6.49605766 C18.6852018,5.68180125 18.9865471,4.86754484 19.5892377,4.25685253 C19.6896861,4.15507048 19.6896861,4.15507048 19.7901345,4.05328843 C18.3838565,3.64616022 15.8726457,4.56219869 14.8681614,6.69962177 C14.6672646,6.59783971 14.3659193,6.59783971 14.1650224,6.49605766 C14.064574,6.49605766 13.9641256,6.39427561 13.9641256,6.29249356 C13.5623318,5.17289099 12.8591928,4.25685253 11.7542601,3.54437817 C10.9506726,3.03546791 9.84573991,2.93368586 8.94170404,3.03546791 C6.832287,3.34081407 5.12466368,4.35863458 3.81883408,5.98714741 C2.51300448,7.61566023 1.9103139,9.65130126 2.01076233,11.6869423 C2.11121076,13.8243654 2.81434978,15.8600064 4.01973094,17.6920833 C4.42152466,18.3027756 5.12466368,18.9134679 5.62690583,19.4223782 C6.33004484,19.8295064 7.23408072,19.8295064 7.8367713,19.2188141 C7.93721973,19.117032 8.03766816,18.9134679 8.13811659,18.8116859 C8.13811659,18.9134679 8.23856502,18.9134679 8.23856502,19.01525 C8.43946188,19.4223782 8.53991031,20.0330705 8.74080717,20.3384167 C8.94170404,20.7455449 9.64484305,21.050891 10.1470852,20.8473269 C10.2475336,20.7455449 10.3479821,20.7455449 10.4484305,20.8473269 C10.8502242,21.050891 11.2520179,21.050891 11.6538117,20.8473269 C11.8547085,20.7455449 11.955157,20.5419808 12.1560538,20.5419808 C12.3569507,20.4401987 12.5578475,20.5419808 12.7587444,20.5419808 C13.2609865,20.4401987 13.7632287,20.2366346 13.7632287,19.5241603 C13.7632287,19.5241603 13.7632287,19.4223782 13.8636771,19.4223782 C14.064574,19.3205962 14.2654709,19.117032 14.2654709,18.9134679 C14.3659193,18.6081218 14.3659193,18.3027756 14.2654709,17.8956474 C13.9641256,17.3867372 13.6627803,16.6742628 13.2609865,16.1653526 L13.1605381,16.0635705 C13.4618834,16.1653526 13.7632287,16.2671346 14.1650224,16.3689167 C14.6672646,16.4706987 15.1695067,16.4706987 15.5713004,16.0635705 C15.6717489,16.0635705 15.6717489,16.1653526 15.7721973,16.1653526 C16.5757848,16.6742628 17.6807175,16.4706987 18.2834081,15.7582243 L18.4843049,15.7582243 C19.0869955,15.8600064 19.5892377,15.7582243 20.0914798,15.3510961 C20.2923767,15.147532 20.4932735,14.9439679 20.4932735,14.6386218 L20.4932735,14.5368397 C21.4977578,14.4350577 22,14.0279295 22,13.010109 C21.8995516,12.2976346 21.6986547,11.7887243 21.0959641,11.4833782 L21.0959641,11.4833782 L21.0959641,11.4833782 Z M16.6762332,8.7352628 C16.2744395,8.9388269 15.8726457,9.04060895 15.2699552,9.04060895 C15.2699552,9.04060895 15.1695067,9.04060895 15.1695067,8.9388269 C15.0690583,8.7352628 15.0690583,8.53169869 14.9686099,8.32813459 C14.9686099,8.22635254 14.9686099,8.22635254 15.0690583,8.22635254 C15.3704036,8.22635254 15.470852,8.22635254 15.470852,8.63348074 L15.470852,8.63348074 C15.6717489,8.32813459 15.6717489,8.32813459 15.9730942,8.42991664 C16.173991,8.53169869 16.3748879,8.53169869 16.5757848,8.63348074 C16.7766816,8.7352628 16.7766816,8.7352628 16.6762332,8.7352628 L16.6762332,8.7352628 L16.6762332,8.7352628 Z M15.3704036,6.59783971 C15.7721973,5.88536535 16.3748879,5.3764551 16.87713,4.96932689 C17.3793722,4.66398074 17.8816143,4.46041663 18.4843049,4.46041663 C18.3838565,4.56219869 18.2834081,4.66398074 18.1829596,4.86754484 C17.8816143,5.27467305 17.8816143,5.88536535 17.7811659,6.29249356 C17.6807175,6.80140382 17.5802691,7.31031408 17.3793722,7.81922433 C17.3793722,8.02278844 17.1784753,8.12457049 17.1784753,8.22635254 C16.87713,7.92100638 16.5757848,7.71744228 16.173991,7.41209613 L16.173991,7.20853202 C16.5757848,6.49605766 16.9775785,5.68180125 17.6807175,5.17289099 L17.6807175,5.17289099 C16.6762332,5.5800192 16.2744395,6.29249356 15.7721973,7.20853202 C15.5713004,7.10674997 15.470852,7.00496792 15.2699552,6.90318587 C15.2699552,6.80140382 15.3704036,6.69962177 15.3704036,6.59783971 L15.3704036,6.59783971 L15.3704036,6.59783971 Z M12.658296,8.32813459 L12.658296,8.32813459 C12.658296,7.81922433 12.7587444,7.31031408 13.0600897,6.90318587 C13.0600897,6.80140382 13.2609865,6.80140382 13.2609865,6.80140382 C14.2654709,6.90318587 15.0690583,7.20853202 15.8726457,7.81922433 C16.0735426,7.92100638 16.173991,8.12457049 16.3748879,8.22635254 C16.173991,8.12457049 15.8726457,8.12457049 15.6717489,8.02278844 C15.1695067,7.92100638 14.5668161,7.92100638 14.064574,8.12457049 C13.6627803,8.42991664 13.1605381,8.42991664 12.658296,8.32813459 L12.658296,8.32813459 L12.658296,8.32813459 C12.9596413,8.63348074 13.2609865,8.63348074 13.6627803,8.53169869 C13.9641256,8.53169869 14.1650224,8.42991664 14.4663677,8.32813459 L14.4663677,8.32813459 C14.4663677,8.42991664 14.3659193,8.53169869 14.3659193,8.53169869 C13.9641256,8.83704485 13.361435,9.04060895 12.8591928,9.24417305 C12.8591928,9.24417305 12.8591928,9.24417305 12.7587444,9.24417305 C12.658296,8.9388269 12.658296,8.63348074 12.658296,8.32813459 L12.658296,8.32813459 L12.658296,8.32813459 Z M9.64484305,5.88536535 C10.5488789,5.88536535 11.4529148,6.69962177 11.4529148,7.71744228 C11.4529148,8.7352628 10.6493274,9.54951921 9.64484305,9.54951921 C8.64035874,9.54951921 7.8367713,8.7352628 7.8367713,7.71744228 C7.8367713,6.59783971 8.64035874,5.88536535 9.64484305,5.88536535 L9.64484305,5.88536535 L9.64484305,5.88536535 Z M14.2654709,12.0940705 C14.6672646,12.1958525 15.2699552,12.2976346 15.6717489,12.2976346 C16.2744395,12.3994166 16.7766816,12.5011987 17.4798206,12.6029808 C17.6807175,12.6029808 17.7811659,12.7047628 17.5802691,12.9083269 C17.3793722,13.2136731 16.87713,13.4172372 16.4753363,13.3154551 L16.2744395,13.3154551 C16.3748879,13.5190192 16.2744395,13.8243654 16.0735426,13.9261474 C15.7721973,14.2314936 15.470852,14.3332756 15.0690583,14.3332756 C14.8681614,14.3332756 14.5668161,14.2314936 14.3659193,14.2314936 C14.2654709,14.8421859 13.1605381,15.04575 12.4573991,14.5368397 C12.5578475,14.8421859 12.658296,15.147532 12.7587444,15.5546602 L12.7587444,15.8600064 C12.5578475,17.3867372 11.3524664,18.5063397 9.84573991,18.6081218 C8.43946188,18.7099038 7.03318386,18.3027756 5.82780269,17.3867372 C4.72286996,16.6742628 3.91928251,15.6564423 3.41704036,14.5368397 C3.41704036,14.4350577 3.31659193,14.4350577 3.31659193,14.3332756 C3.71838565,14.4350577 4.12017937,14.5368397 4.42152466,14.6386218 C5.12466368,14.7404038 5.82780269,14.7404038 6.5309417,14.2314936 L6.73183857,14.2314936 C7.43497758,14.4350577 8.13811659,14.5368397 8.94170404,14.4350577 C10.0466368,14.2314936 10.8502242,13.6208013 11.6538117,12.7047628 C11.955157,12.3994166 12.1560538,11.9922884 12.3569507,11.5851602 C12.5578475,11.2798141 12.7587444,11.07625 12.9596413,10.8726859 L13.1605381,10.8726859 C13.9641256,10.9744679 14.767713,11.07625 15.6717489,11.178032 C16.7766816,11.3815961 17.7811659,11.5851602 18.9865471,11.7887243 C18.9865471,11.7887243 19.0869955,11.7887243 19.0869955,11.8905064 C17.5802691,11.9922884 15.8726457,12.1958525 14.2654709,12.0940705 L14.2654709,12.0940705 L14.2654709,12.0940705 Z M9.64484305,8.7352628 C10.2475336,8.7352628 10.7497758,8.32813459 10.7497758,7.71744228 C10.7497758,7.10674997 10.2475336,6.69962177 9.64484305,6.69962177 C9.04215247,6.69962177 8.53991031,7.20853202 8.53991031,7.71744228 C8.53991031,8.22635254 8.94170404,8.7352628 9.64484305,8.7352628 L9.64484305,8.7352628 Z M9.04215247,6.90318587 C9.1426009,6.80140382 9.34349776,6.80140382 9.54439462,6.69962177 C9.74529148,6.80140382 9.84573991,6.80140382 10.0466368,6.90318587 C10.2475336,7.00496792 10.2475336,7.20853202 10.0466368,7.41209613 C9.84573991,7.61566023 9.34349776,7.61566023 8.94170404,7.41209613 C8.84125561,7.20853202 8.84125561,7.00496792 9.04215247,6.90318587 L9.04215247,6.90318587 L9.04215247,6.90318587 Z" id="bower" fill="#000"/>
    </g>
</svg>

<svg xmlns="http://www.w3.org/2000/svg" viewBox="0 0 24 24">
    <path fill-rule="evenodd" d="M21.096 11.483c-.301-.101-.603-.305-1.005-.407-1.808-.509-3.616-.712-5.424-1.018-.301 0-.602-.101-1.004-.101.1-.51.301-.713 1.004-.815.1.102.1.306.201.408 0 .101.1.203.201.101h.703c1.206-.203 2.01-.814 2.511-2.035.1-.407.201-.815.302-1.12.1-.814.402-1.628 1.004-2.24l.201-.203c-1.406-.407-3.917.51-4.922 2.647-.2-.102-.502-.102-.703-.204-.1 0-.2-.102-.2-.204-.403-1.12-1.106-2.035-2.21-2.748-.804-.509-1.91-.61-2.813-.509-2.11.306-3.817 1.324-5.123 2.952-1.306 1.629-1.909 3.664-1.808 5.7.1 2.137.803 4.173 2.009 6.005.402.61 1.105 1.221 1.607 1.73.703.408 1.607.408 2.21-.203.1-.102.2-.306.301-.407 0 .101.1.101.1.203.201.407.302 1.018.503 1.323.2.408.904.713 1.406.51.1-.102.201-.102.301 0a1.27 1.27 0 0 0 1.206 0c.2-.102.301-.306.502-.306.201-.102.402 0 .603 0 .502-.102 1.004-.305 1.004-1.018 0 0 0-.102.1-.102.202-.101.402-.305.402-.509.1-.305.1-.61 0-1.017-.3-.51-.602-1.222-1.004-1.73l-.1-.102c.3.101.602.203 1.004.305.502.102 1.005.102 1.406-.305.1 0 .1.101.201.101.804.51 1.909.306 2.511-.407h.201c.603.102 1.105 0 1.607-.407.201-.203.402-.407.402-.712v-.102c1.005-.102 1.507-.51 1.507-1.527-.1-.712-.301-1.221-.904-1.527zm-4.42-2.748c-.402.204-.803.306-1.406.306 0 0-.1 0-.1-.102-.1-.204-.1-.407-.201-.61 0-.103 0-.103.1-.103.301 0 .402 0 .402.407.2-.305.2-.305.502-.203.201.102.402.102.603.203.2.102.2.102.1.102zM15.37 6.598c.402-.713 1.005-1.222 1.507-1.629.502-.305 1.005-.509 1.607-.509-.1.102-.2.204-.301.408-.301.407-.301 1.017-.402 1.424-.1.51-.2 1.018-.402 1.527 0 .204-.2.306-.2.407-.302-.305-.603-.509-1.005-.814V7.21c.402-.713.804-1.527 1.507-2.036-1.005.407-1.407 1.12-1.909 2.036-.2-.102-.301-.204-.502-.306 0-.102.1-.203.1-.305zm-2.712 1.73c0-.509.1-1.018.402-1.425 0-.102.201-.102.201-.102 1.004.102 1.808.408 2.612 1.018.2.102.301.306.502.407-.201-.101-.502-.101-.703-.203-.502-.102-1.105-.102-1.607.102-.402.305-.904.305-1.407.203.302.305.603.305 1.005.204.301 0 .502-.102.803-.204 0 .102-.1.204-.1.204-.402.305-1.005.509-1.507.712h-.1c-.1-.305-.1-.61-.1-.916zM9.645 5.885c.904 0 1.808.815 1.808 1.832A1.813 1.813 0 0 1 9.645 9.55a1.813 1.813 0 0 1-1.808-1.833c0-1.12.803-1.832 1.808-1.832zm4.62 6.21c.402.1 1.005.203 1.407.203.602.101 1.105.203 1.808.305.2 0 .301.102.1.305-.2.306-.703.51-1.105.407h-.2c.1.204 0 .51-.201.611-.302.305-.603.407-1.005.407-.2 0-.502-.102-.703-.102-.1.611-1.205.815-1.909.306.1.305.201.61.302 1.018v.305a3.128 3.128 0 0 1-2.913 2.748c-1.407.102-2.813-.305-4.018-1.221-1.105-.713-1.909-1.73-2.411-2.85 0-.102-.1-.102-.1-.204.401.102.803.204 1.105.306.703.101 1.406.101 2.109-.408h.2c.704.204 1.407.306 2.21.204 1.106-.204 1.91-.814 2.713-1.73.301-.306.502-.713.703-1.12.2-.305.402-.509.603-.712h.2c.804.101 1.608.203 2.512.305 1.105.204 2.11.407 3.315.61 0 0 .1 0 .1.103-1.507.101-3.214.305-4.822.203zm-4.62-3.36c.603 0 1.105-.407 1.105-1.018 0-.61-.502-1.017-1.105-1.017S8.54 7.209 8.54 7.717c0 .51.402 1.018 1.105 1.018zm-.603-1.832c.1-.102.301-.102.502-.203.201.101.302.101.503.203.2.102.2.306 0 .51-.201.203-.704.203-1.105 0-.1-.204-.1-.408.1-.51z"/>
</svg>
